X: 38102
T: Spooky Scary
R: jig
M: 6/8
K: Eminor
|:"Em"EBB "C"Ecc|"Em"EBB "D"AGF|"Em"EBB "C"Ecc|"D"ded cAF|
"Em"EBB "C"Ecc|"Em"EBB "D"AGF|"C"EFG "D"FED|"C"EDC "D"DEF:|
K:Gm
|:"Gm" GAB ADD|GAB Add|d>ed fed|"F"cdc edc|
"Eb"B>cB dcB|"D"ABA cBA|"Eb7"Gdd d^cd|"D"^Fdd "Bm"AG^F:|[K:Em]

